X: 30009
T: Off She Goes
R: jig
M: 6/8
K: Dmajor
|:A/G/|F2 A G2 B|ABc d2 A/G/|F2 A G2 B|AFD E2 D|
F2 A G2 B|ABc d2 e|fed g2 f|edc d2:|
|:e|faf def|gbg efg|faf def|eAA A2 d/e/|
faf def|gbg efg|fed g2 f|edc d2:|

